Font-Source/Egyptian2/svg-my/134E0.svg

<?xml version="1.0" encoding="UTF-8" standalone="no"?>
<svg
   width="1000"
   height="1000"
   version="1.1"
   id="svg1"
   sodipodi:docname="134E0.svg"
   inkscape:version="1.4.2 (f4327f4, 2025-05-13)"
   xmlns:inkscape="http://www.inkscape.org/namespaces/inkscape"
   xmlns:sodipodi="http://sodipodi.sourceforge.net/DTD/sodipodi-0.dtd"
   xmlns="http://www.w3.org/2000/svg"
   xmlns:svg="http://www.w3.org/2000/svg">
  <defs
     id="defs1" />
  <sodipodi:namedview
     id="namedview1"
     pagecolor="#ffffff"
     bordercolor="#666666"
     borderopacity="1.0"
     inkscape:showpageshadow="2"
     inkscape:pageopacity="0.0"
     inkscape:pagecheckerboard="0"
     inkscape:deskcolor="#d1d1d1"
     inkscape:zoom="2.1354625"
     inkscape:cx="230.16092"
     inkscape:cy="225.94637"
     inkscape:window-width="1680"
     inkscape:window-height="998"
     inkscape:window-x="-8"
     inkscape:window-y="-8"
     inkscape:window-maximized="1"
     inkscape:current-layer="svg1" />
  <path
     id="path1"
     style="fill:#000000;stroke:none;stroke-width:1"
     d="M 625.64844,0.14257812 C 592.97295,-0.80650928 565.38176,2.9219946 542.875,11.328125 512.86595,22.536336 493.16017,45.495831 483.75977,80.205078 l -11.93165,22.777342 2.16993,11.93164 c -10.12356,15.18529 -18.6207,30.18991 -25.49024,45.01367 -6.8695,14.82372 -7.77267,24.04266 -2.71093,27.65821 l 15.18554,10.84765 c -5.06176,4.33863 -5.06176,8.67696 0,13.01563 -3.61555,7.2311 -2.53098,11.20855 3.25391,11.93164 l 3.2539,5.42383 c 0,13.73907 4.51973,22.7766 13.5586,27.11523 9.03887,4.33868 29.10552,3.25408 60.19922,-3.2539 l 3.2539,11.93164 c -69.41846,0 -112.80553,15.18603 -130.16015,45.55664 -10.66385,8.77405 -21.23911,17.67318 -31.72657,26.69922 -5.60459,-10.09237 -11.51936,-20.08182 -18.04492,-29.86719 45.78162,-27.84648 71.08008,-58.45339 71.08008,-112.88867 H 12.515625 c -0.762173,16.30828 1.662989,32.22229 7.847656,47.375 l -4.835937,6.77343 c 0.38318,50.76527 33.201152,81.74556 73.447265,98.41993 68.074471,110.92225 115.665051,177.16644 145.312501,185.84375 21.6933,3.61551 57.12546,-15.90884 106.29687,-58.57227 59.29497,-53.51005 86.05052,-70.8633 80.26563,-52.0625 0,23.86259 5.24342,44.651 15.72851,62.36719 10.4851,17.71619 35.97463,97.43856 76.46876,239.16797 L 325.39844,583.48828 c -28.20123,-25.30881 -52.78569,-37.96289 -73.75586,-37.96289 -60.01806,0.72309 -86.0499,25.67035 -78.0957,74.8418 l 28.20117,211.50976 c -44.83277,13.73907 -64.71802,52.7878 -59.65625,117.14453 -20.24705,3.61551 -39.04968,9.0384 -56.4043,16.26954 -17.354623,7.23106 -34.707877,10.30344 -52.0625,9.21875 C 16.270377,973.42508 5.0617621,981.92221 0,1000 h 903.52539 c -19.52393,-36.15546 -46.27946,-50.61778 -80.26562,-43.38672 -33.98608,7.23114 -56.94566,-7.95497 -68.87696,-45.55664 -11.93134,-37.60171 -32.35884,-45.19372 -61.2832,-22.77734 27.47826,-52.78699 28.56272,-108.4653 3.25391,-167.03711 -1.44625,-193.79328 22.7917,-286.86781 40.9746,-324.80664 17.37348,-36.24996 -0.95016,-119.43044 -78.9375,-131.83789 -19.99546,-3.18119 -30.7318,-15.54693 -31.45507,-46.64063 70.14158,-31.0937 105.21289,-71.22507 105.21289,-120.396483 0,-57.848757 -24.0441,-89.4849157 -72.13086,-94.9082032 C 647.99589,1.2965126 636.54027,0.45894059 625.64844,0.14257812 Z M 620.15625,23.396484 c 14.64296,0.451944 29.19602,1.853025 43.6582,4.203125 28.92436,4.700199 43.38672,27.657779 43.38672,68.875 0,33.986131 -27.84015,64.719081 -83.51953,92.197271 26.75502,-18.80088 36.69766,-39.40983 29.82813,-61.82618 -6.8695,-22.41642 -16.81214,-32.359022 -29.82813,-29.828122 -13.01595,2.530901 -22.59769,0.361727 -28.74414,-6.507812 -6.14645,-6.869537 -32.35777,-15.72757 -78.63672,-26.574219 10.12349,-23.13951 30.00876,-36.156403 59.65625,-39.048828 14.82374,-1.446213 29.55626,-1.942178 44.19922,-1.490235 z M 498.94531,80.205078 c 54.95629,9.4004 88.94304,25.308232 101.95899,47.724612 16.63154,-13.01595 28.0196,-11.93139 34.16601,3.2539 6.14645,15.18529 -3.79619,29.64765 -29.82812,43.38672 -5.9657,53.48952 -3.41696,116.85754 67.64648,129.83985 27.74381,5.06842 56.64635,39.76712 30.51563,103.90625 -27.83967,68.33383 -41.75977,173.36434 -41.75977,315.09375 L 559.68555,746.18945 C 506.8986,575.53568 475.26439,482.97782 464.7793,468.51562 c -10.48505,-14.46219 -13.55935,-56.7647 -9.22071,-126.90624 -1.44621,-23.86263 18.07814,-35.79493 58.57227,-35.79493 41.21733,0 61.4635,-9.40033 60.74023,-28.20117 -0.72309,-18.80083 -7.23057,-34.70862 -19.52343,-47.72461 -11.56977,5.78489 -26.75389,9.94371 -45.55469,12.47461 -18.80084,2.53086 -28.56399,-3.43628 -29.28711,-17.89844 5.78489,-2.89243 10.48601,-4.69875 14.10156,-5.42187 3.61555,-0.72313 6.14559,-1.80965 7.5918,-3.25586 v -7.5918 l -17.35547,-5.42383 c -1.44621,-2.89242 -5.06085,-3.61417 -10.8457,-2.16796 1.44621,-3.61555 -1.08383,-7.23211 -7.5918,-10.84766 -7.2311,-5.06177 -10.48676,-9.03922 -9.76367,-11.93164 0.72313,-2.89247 3.43652,-9.76081 8.13672,-20.60742 4.7002,-10.84665 12.11081,-24.58725 22.23437,-41.21875 l -1.08398,-13.01563 z m -9.76172,21.693362 v 9.76172 c 24.58572,0 40.8564,3.25371 48.81055,9.76172 7.95422,6.50796 20.96917,9.76171 39.04688,9.76171 v -8.67578 c -15.18525,0 -27.47848,-3.43514 -36.87891,-10.30469 -9.4004,-6.86952 -26.3928,-10.30468 -50.97852,-10.30468 z m 16.5918,22.96875 c -6.72265,0.0989 -12.61402,2.20371 -17.67578,6.3164 l -10.84766,8.67774 2.16993,5.42383 5.42187,-2.16993 c 16.63154,7.2311 33.62588,6.14654 50.98047,-3.2539 l 39.04687,7.59375 1.08594,-7.59375 -40.13281,-5.42383 c -11.38894,-6.508 -21.40543,-9.69742 -30.04883,-9.57031 z m 7.27149,5.23242 16.26953,6.50781 c -5.78485,2.89243 -11.57058,4.7007 -17.35547,5.42383 4.33867,-3.61555 4.70148,-7.59297 1.08594,-11.93164 z m -14.10157,1.08398 c -2.89243,3.61555 -2.53156,7.593 1.08399,11.93164 -4.33868,-1.44621 -8.31418,-2.89168 -11.92969,-4.33789 1.44621,-2.89242 5.06085,-5.42441 10.8457,-7.59375 z m -13.21289,46.39453 c -1.07629,0.0408 -1.97265,2.59748 -1.97265,4.58594 0,2.78167 -3.15998,9.41682 -9.21875,1.62696 -7.00915,-9.0118 -12.06279,-4.73306 -10.30469,0.54101 2.89243,-1.44621 5.96476,-0.18023 9.21875,3.79688 6.99653,8.55134 16.0376,2.23827 14.64453,-5.42383 -0.69967,-3.84812 -1.58178,-5.15673 -2.36719,-5.12696 z m -12.81836,26.2793 c 1.26544,0 2.89231,0.36088 4.88086,1.08399 3.97711,1.44625 8.67632,2.71222 14.09961,3.79687 5.42337,1.08465 7.77391,1.62695 7.05078,1.62695 l -27.11719,-1.08593 c -2.1693,-1.44621 -2.7116,-2.89164 -1.62695,-4.33789 0.54233,-0.72311 1.44745,-1.08399 2.71289,-1.08399 z m 26.03125,8.67578 c 0.72313,0.72313 -2.34917,1.98911 -9.21875,3.79688 -6.8695,1.80778 -11.75211,2.71289 -14.64453,2.71289 -6.20789,0 -7.45381,-2.9399 -3.25391,-4.33985 z M 33.324219,214.09766 H 414.84375 c -5.2207,36.28547 -38.54309,70.83282 -93.40039,90.83203 -59.8819,21.83101 -134.83685,21.83102 -194.71875,0 C 71.867316,284.93048 38.54492,250.38313 33.324219,214.09766 Z m 93.199221,111.94726 c 58.18405,19.49891 126.49139,20.4903 185.70312,2.9707 7.46086,16.2876 16.91759,31.43393 27.39453,45.99805 -30.46815,27.88293 -60.15676,56.88003 -89.06445,86.99219 -12.77253,-22.35555 -36.76629,-49.81477 -74.33789,-84.87305 -24.30658,-22.68062 -39.94136,-38.38747 -49.69531,-51.08789 z m 128.89844,259.76563 c 6.06733,-0.10169 14.92971,3.1014 26.58984,9.60937 l 220.1875,163.78516 -231.0332,52.0625 c 19.52396,-93.28105 11.9319,-159.08341 -22.77735,-197.4082 -5.42332,-18.52966 -3.07903,-27.87935 7.03321,-28.04883 z m 414.90039,167.9707 c 14.46217,58.57185 3.97725,110.63551 -31.45508,156.19141 -52.787,30.37057 -116.60158,34.70888 -191.44336,13.01562 -74.84178,-21.69329 -145.88753,-16.99217 -213.13672,14.10156 6.50801,-23.8626 0.72423,-48.44892 -17.35352,-73.75781 z"
     sodipodi:nodetypes="sscccscccccscccccccccccccsccccccssccssccsscsssssscssscssccscssccscsccscscccccsscccccsccscsccccccccsccccccccssscssssssccsscssccccsscccccscsccccsccsccc" />
</svg>

<?xml version="1.0" encoding="UTF-8" standalone="no"?>
<svg
   width="1000"
   height="1000"
   version="1.1"
   id="svg1"
   sodipodi:docname="134E0.svg"
   inkscape:version="1.4.2 (f4327f4, 2025-05-13)"
   xmlns:inkscape="http://www.inkscape.org/namespaces/inkscape"
   xmlns:sodipodi="http://sodipodi.sourceforge.net/DTD/sodipodi-0.dtd"
   xmlns="http://www.w3.org/2000/svg"
   xmlns:svg="http://www.w3.org/2000/svg">
  <defs
     id="defs1" />
  <sodipodi:namedview
     id="namedview1"
     pagecolor="#ffffff"
     bordercolor="#666666"
     borderopacity="1.0"
     inkscape:showpageshadow="2"
     inkscape:pageopacity="0.0"
     inkscape:pagecheckerboard="0"
     inkscape:deskcolor="#d1d1d1"
     inkscape:zoom="0.26693281"
     inkscape:cx="728.64778"
     inkscape:cy="46.828264"
     inkscape:window-width="1680"
     inkscape:window-height="998"
     inkscape:window-x="-8"
     inkscape:window-y="-8"
     inkscape:window-maximized="1"
     inkscape:current-layer="svg1" />
  <path
     id="path1"
     style="fill:#000000;stroke:none;stroke-width:1"
     d="M 625.64844 0.14257812 C 592.97295 -0.80650928 565.38176 2.9219946 542.875 11.328125 C 512.86595 22.536336 493.16017 45.495831 483.75977 80.205078 L 471.82812 102.98242 L 473.99805 114.91406 C 463.87449 130.09935 455.37735 145.10397 448.50781 159.92773 C 441.63831 174.75145 440.73514 183.97039 445.79688 187.58594 L 460.98242 198.43359 C 455.92066 202.77222 455.92066 207.11055 460.98242 211.44922 C 457.36687 218.68032 458.45144 222.65777 464.23633 223.38086 L 467.49023 228.80469 C 467.49023 242.54376 472.00996 251.58129 481.04883 255.91992 C 490.0877 260.2586 510.15435 259.174 541.24805 252.66602 L 544.50195 264.59766 C 475.08349 264.59766 431.69642 279.78369 414.3418 310.1543 C 403.67795 318.92835 393.10269 327.82748 382.61523 336.85352 C 377.01064 326.76115 371.09587 316.7717 364.57031 306.98633 C 408.53118 281.7612 435.65039 244.9167 435.65039 204.09766 L 435.65039 194.09766 L 224.08398 194.09766 L 12.515625 194.09766 L 12.515625 204.09766 C 12.515625 217.30801 15.35682 230.10195 20.689453 242.2207 L 6.6308594 264.16797 C 2.953443 280.95807 14.887787 303.51747 29.853516 315.95117 C 52.044649 328.09889 64.08988 341.58871 88.505859 355.0957 C 156.58033 466.01795 204.63966 523.83246 234.28711 532.50977 C 255.98041 536.12528 291.41257 516.60093 340.58398 473.9375 C 399.87895 420.42745 426.6345 403.0742 420.84961 421.875 C 420.84961 445.73759 426.09303 466.526 436.57812 484.24219 C 447.06322 501.95838 472.55275 581.68075 513.04688 723.41016 L 325.39844 583.48828 C 297.19721 558.17947 272.61275 545.52539 251.64258 545.52539 C 191.62452 546.24848 165.59268 571.19574 173.54688 620.36719 L 201.74805 831.87695 C 156.91528 845.61602 137.03003 884.66475 142.0918 949.02148 C 121.84475 952.63699 103.04212 958.05988 85.6875 965.29102 C 68.332877 972.52208 50.979623 975.59446 33.625 974.50977 C 16.270377 973.42508 5.0617621 981.92221 0 1000 L 903.52539 1000 C 884.00146 963.84454 857.24593 949.38222 823.25977 956.61328 C 789.27369 963.84442 766.31411 948.65831 754.38281 911.05664 C 742.45147 873.45493 722.02397 865.86292 693.09961 888.2793 C 720.57787 835.49231 721.66233 779.814 696.35352 721.24219 C 694.90727 527.44891 719.14522 434.37438 737.32812 396.43555 C 754.7016 360.18559 736.37796 277.00511 658.39062 264.59766 C 638.39516 261.41647 627.65882 249.05073 626.93555 217.95703 C 697.07713 186.86333 732.14844 146.73196 732.14844 97.560547 C 732.14844 39.71179 708.10434 8.0756313 660.01758 2.6523438 C 647.99589 1.2965126 636.54027 0.45894059 625.64844 0.14257812 z M 620.15625 23.396484 C 634.79921 23.848428 649.35227 25.249509 663.81445 27.599609 C 692.73881 32.299808 707.20117 55.257388 707.20117 96.474609 C 707.20117 130.46074 679.36102 161.19369 623.68164 188.67188 C 650.43666 169.871 660.3793 149.26205 653.50977 126.8457 C 646.64027 104.42928 636.69763 94.486678 623.68164 97.017578 C 610.66569 99.548479 601.08395 97.379305 594.9375 90.509766 C 588.79105 83.640229 562.57973 74.782196 516.30078 63.935547 C 526.42427 40.796037 546.30954 27.779144 575.95703 24.886719 C 590.78077 23.440506 605.51329 22.944541 620.15625 23.396484 z M 498.94531 80.205078 C 553.9016 89.605478 587.88835 105.51331 600.9043 127.92969 C 617.53584 114.91374 628.9239 115.9983 635.07031 131.18359 C 641.21676 146.36888 631.27412 160.83124 605.24219 174.57031 C 599.27649 228.05983 601.82523 291.42785 672.88867 304.41016 C 700.63248 309.47858 729.53502 344.17728 703.4043 408.31641 C 675.56463 476.65024 661.64453 581.68075 661.64453 723.41016 L 559.68555 746.18945 C 506.8986 575.53568 475.26439 482.97782 464.7793 468.51562 C 454.29425 454.05343 451.21995 411.75092 455.55859 341.60938 C 454.11238 317.74675 473.63673 305.81445 514.13086 305.81445 C 555.34819 305.81445 575.59436 296.41412 574.87109 277.61328 C 574.148 258.81245 567.64052 242.90466 555.34766 229.88867 C 543.77789 235.67356 528.59377 239.83238 509.79297 242.36328 C 490.99213 244.89414 481.22898 238.927 480.50586 224.46484 C 486.29075 221.57241 490.99187 219.76609 494.60742 219.04297 C 498.22297 218.31984 500.75301 217.23332 502.19922 215.78711 L 502.19922 208.19531 L 484.84375 202.77148 C 483.39754 199.87906 479.7829 199.15731 473.99805 200.60352 C 475.44426 196.98797 472.91422 193.37141 466.40625 189.75586 C 459.17515 184.69409 455.91949 180.71664 456.64258 177.82422 C 457.36571 174.93175 460.0791 168.06341 464.7793 157.2168 C 469.4795 146.37015 476.89011 132.62955 487.01367 115.99805 L 485.92969 102.98242 L 498.94531 80.205078 z M 489.18359 101.89844 L 489.18359 111.66016 C 513.76931 111.66016 530.03999 114.91387 537.99414 121.42188 C 545.94836 127.92984 558.96331 131.18359 577.04102 131.18359 L 577.04102 122.50781 C 561.85577 122.50781 549.56254 119.07267 540.16211 112.20312 C 530.76171 105.3336 513.76931 101.89844 489.18359 101.89844 z M 505.77539 124.86719 C 499.05274 124.96605 493.16137 127.0709 488.09961 131.18359 L 477.25195 139.86133 L 479.42188 145.28516 L 484.84375 143.11523 C 501.47529 150.34633 518.46963 149.26177 535.82422 139.86133 L 574.87109 147.45508 L 575.95703 139.86133 L 535.82422 134.4375 C 524.43528 127.9295 514.41879 124.74008 505.77539 124.86719 z M 513.04688 130.09961 L 529.31641 136.60742 C 523.53156 139.49985 517.74583 141.30812 511.96094 142.03125 C 516.29961 138.4157 516.66242 134.43828 513.04688 130.09961 z M 498.94531 131.18359 C 496.05288 134.79914 496.41375 138.77659 500.0293 143.11523 C 495.69062 141.66902 491.71512 140.22355 488.09961 138.77734 C 489.54582 135.88492 493.16046 133.35293 498.94531 131.18359 z M 485.73242 177.57812 C 484.65613 177.61892 483.75977 180.1756 483.75977 182.16406 C 483.75977 184.94573 480.59979 191.58088 474.54102 183.79102 C 467.53187 174.77922 462.47823 179.05796 464.23633 184.33203 C 467.12876 182.88582 470.20109 184.1518 473.45508 188.12891 C 480.45161 196.68025 489.49268 190.36718 488.09961 182.70508 C 487.39994 178.85696 486.51783 177.54835 485.73242 177.57812 z M 472.91406 203.85742 C 474.1795 203.85742 475.80637 204.2183 477.79492 204.94141 C 481.77203 206.38766 486.47124 207.65363 491.89453 208.73828 C 497.3179 209.82293 499.66844 210.36523 498.94531 210.36523 L 471.82812 209.2793 C 469.65882 207.83309 469.11652 206.38766 470.20117 204.94141 C 470.7435 204.2183 471.64862 203.85742 472.91406 203.85742 z M 498.94531 212.5332 C 499.66844 213.25633 496.59614 214.52231 489.72656 216.33008 C 482.85706 218.13786 477.97445 219.04297 475.08203 219.04297 C 468.87414 219.04297 467.62822 216.10307 471.82812 214.70312 L 498.94531 212.5332 z M 33.324219 214.09766 L 224.08398 214.09766 L 414.84375 214.09766 C 409.62305 250.38313 376.30066 284.93048 321.44336 304.92969 C 261.56146 326.7607 186.60651 326.76071 126.72461 304.92969 C 71.867316 284.93048 38.54492 250.38313 33.324219 214.09766 z M 125.21875 325.60547 C 183.68446 345.52936 252.57176 346.66631 312.22656 329.01562 C 319.68742 345.30322 329.14415 360.44955 339.62109 375.01367 C 309.15294 402.8966 279.46433 431.8937 250.55664 462.00586 C 237.78411 439.65031 213.79035 412.19109 176.21875 377.13281 C 153.55372 355.98393 136.55405 339.19574 125.21875 325.60547 z M 255.42188 585.81055 C 261.48921 585.70886 270.35159 588.91195 282.01172 595.41992 L 502.19922 759.20508 L 271.16602 811.26758 C 290.68998 717.98653 283.09792 652.18417 248.38867 613.85938 C 242.96535 595.32972 245.30964 585.98003 255.42188 585.81055 z M 670.32227 753.78125 C 684.78444 812.3531 674.29952 864.41676 638.86719 909.97266 C 586.08019 940.34323 522.26561 944.68154 447.42383 922.98828 C 372.58205 901.29499 301.5363 905.99611 234.28711 937.08984 C 240.79512 913.22724 235.01134 888.64092 216.93359 863.33203 L 670.32227 753.78125 z " />
</svg>
